X:283
T: Hama diao
N: C0622
O: China,Yunnan, Songming
S: II, 56, 1)]
N: Foto '87 4 1, moegl. nur cut 9) DASSELBE AUF KA 66;
N: Vor- und Zwischenspiele weggelassen.
R: Wuge, Huadeng, Songming huadeng. Xinsuan youxi]
M: 2/4
L: 1/32
K: A
B4B2c2e8 | f4f2a2e2f2e2c2B8
B4B2c2e8 | f4c4e4e2c2B8
f2a2f2e2f4c4 | f3ff2f2e2f2e2B2c2B2A2F2
F2A2F2A2B8 | e4f2a2f4e2c2 | B2c2B2A2B8 |
f6f2c4e4 | B4c2e2B4A2F2 | A4B2c2B2A2F4E8
F2A2F2A2B6c2 | A2B2A2F2e6f2 | e16

@@@ Tune index: 6284
